build/img/reasons/globe.svg

<svg xmlns="http://www.w3.org/2000/svg" viewBox="0 0 512 512"><!--! Font Awesome Pro 6.1.1 by @fontawesome - https://fontawesome.com License - https://fontawesome.com/license (Commercial License) Copyright 2022 Fonticons, Inc.--><path d="M352 256c0 22.2-1.2 43.6-3.3 64H163.3c-2.1-20.4-4.2-41.8-4.2-64 0-22.2 2.1-43.6 4.2-64h185.4c2.1 20.4 3.3 41.8 3.3 64zm151.9-64c5.3 20.5 8.1 41.9 8.1 64s-2.8 43.5-8.1 64H380.8c2.1-20.6 3.2-42.9 3.2-64 0-22-1.1-43.4-3.2-64h123.1zm-10.5-32H376.7c-10-63.86-29.8-117.38-55.3-151.558C399.8 29.09 463.4 85.94 493.4 160zm-149.1 0H167.7c6.1-36.4 15.5-68.62 27-94.65 10.5-23.61 22.2-40.74 33.5-51.54C239.4 3.178 248.7 0 256 0c7.3 0 16.6 3.178 27.8 13.81 11.3 10.8 23 27.93 33.5 51.54 11.5 26.03 20.9 58.25 27 94.65zm-325.69 0C48.59 85.94 112.2 29.09 190.6 8.442 165.1 42.62 145.3 96.14 135.3 160H18.61zm112.59 32c-2.1 20.6-4.1 42-4.1 64 0 21.1 2 43.4 4.1 64H8.065C2.8 299.5 0 278.1 0 256s2.8-43.5 8.065-64H131.2zm63.5 254.6c-11.5-26-20.9-58.2-27-94.6h176.6c-6.1 36.4-15.5 68.6-27 94.6-10.5 23.7-22.2 40.8-33.5 51.6-11.2 10.6-20.5 13.8-28.7 13.8-6.4 0-15.7-3.2-26.9-13.8-11.3-10.8-23-27.9-33.5-51.6zm-4.1 57C112.2 482.9 48.59 426.1 18.61 352H135.3c10 63.9 29.8 117.4 55.3 151.6zm130.8 0c25.5-34.2 45.3-87.7 55.3-151.6h116.7c-30 74.1-93.6 130.9-172 151.6z"/></svg>

<svg xmlns="http://www.w3.org/2000/svg" viewBox="0 0 512 512"><!--! Font Awesome Pro 6.1.1 by @fontawesome - https://fontawesome.com License - https://fontawesome.com/license (Commercial License) Copyright 2022 Fonticons, Inc. --><path d="M352 256C352 278.2 350.8 299.6 348.7 320H163.3C161.2 299.6 159.1 278.2 159.1 256C159.1 233.8 161.2 212.4 163.3 192H348.7C350.8 212.4 352 233.8 352 256zM503.9 192C509.2 212.5 512 233.9 512 256C512 278.1 509.2 299.5 503.9 320H380.8C382.9 299.4 384 277.1 384 256C384 234 382.9 212.6 380.8 192H503.9zM493.4 160H376.7C366.7 96.14 346.9 42.62 321.4 8.442C399.8 29.09 463.4 85.94 493.4 160zM344.3 160H167.7C173.8 123.6 183.2 91.38 194.7 65.35C205.2 41.74 216.9 24.61 228.2 13.81C239.4 3.178 248.7 0 256 0C263.3 0 272.6 3.178 283.8 13.81C295.1 24.61 306.8 41.74 317.3 65.35C328.8 91.38 338.2 123.6 344.3 160H344.3zM18.61 160C48.59 85.94 112.2 29.09 190.6 8.442C165.1 42.62 145.3 96.14 135.3 160H18.61zM131.2 192C129.1 212.6 127.1 234 127.1 256C127.1 277.1 129.1 299.4 131.2 320H8.065C2.8 299.5 0 278.1 0 256C0 233.9 2.8 212.5 8.065 192H131.2zM194.7 446.6C183.2 420.6 173.8 388.4 167.7 352H344.3C338.2 388.4 328.8 420.6 317.3 446.6C306.8 470.3 295.1 487.4 283.8 498.2C272.6 508.8 263.3 512 255.1 512C248.7 512 239.4 508.8 228.2 498.2C216.9 487.4 205.2 470.3 194.7 446.6H194.7zM190.6 503.6C112.2 482.9 48.59 426.1 18.61 352H135.3C145.3 415.9 165.1 469.4 190.6 503.6V503.6zM321.4 503.6C346.9 469.4 366.7 415.9 376.7 352H493.4C463.4 426.1 399.8 482.9 321.4 503.6V503.6z"/></svg>
